X:1877
T:Bourrée - La galette (F. Paris)
C:F. Paris
M:3/8
L:1/16
K:G
Bc|:d2d2d2|e6|dedcBA|B2G2Bc|\
d2d2d2|e2ceGe|dedcBA|1 G2B2c2:|2 G2B2G2||
|:A2AdcB|B2G3B|ABcAFA|G2B2G2|\
A2AdcB|B2GBDB|ABcAFA|1 G2B2GB:|2 G4Bc||


